X:1
T:Title
%%score { ( 1 3 4 ) | ( 2 5 ) }
L:1/8
M:4/4
K:G
V:1 treble nm="Grand Piano"
V:3 treble 
V:4 treble 
V:2 treble 
V:5 treble 
V:1
 z4 z2[Q:1/4=100] B>c | d>d d>c B2 B>[^DA] | [G,EG]2 [G,CE]2 [G,B,D]2 D>G | %3
 [DF]6[K:bass][K:treble] z2 | [DB]6 z2 |[M:3/4] d>d d>c B2 |[M:1/4] [FA]>[GB] | %7
[M:4/4] [Ac]>[Ac] [Ac]>[GB] [FA]2 D>G | [GB]6 z2 |[M:3/4] G6 |[M:1/4] B>c | %11
[M:4/4] [Bd]->[DB-d-] [DB-d-]>[DB-d-] [Bd]>B [ce]>[Bd] | [GB]6 z2 | [Ac]6 z2 | [GB]6 z2 | %15
 d>d d>c B2 [FA]>[GB] | [Ac]>[Ac] [Ac]>[GB] [FA]2 D>G | [GB]6 z2 |[M:3/4] G6 |] %19
V:2
 z4 z2 [G,D]>[G,D] | [G,B,G]>[G,B,G] [G,B,G]>[K:bass][G,A,D] [G,D]2 [G,D]>[B,,G,] | %2
 C,2 C,2 G,,2 B,>B, | D,>D, D,>D, z z/ B,/ C>B, | [G,,G,]2 G,,2 G,,2[K:treble] [G,D]>[G,A,D] | %5
[M:3/4] [G,B,G]>[G,B,G] [G,B,G]>[G,EG] [G,DG]2 |[M:1/4][K:bass] [D,D]>[D,D] | %7
[M:4/4] [D,D]>[D,D] [D,D]>[D,D] [D,D]2 B,>D | D,>D, D,>D, D,2 D>D |[M:3/4] G,,2 G,,2 G,,2 | %10
[M:1/4][K:treble] G>A |[M:4/4] G,>G, G,>G, z z/ G/[K:bass] [G,D]>[G,D] | %12
 [G,D]>G, G,>G, G,2[K:treble] F>G | D,>D, D,>D, z z/ F/ F,>F, | %14
 G,>G, G,>G, G,2[K:treble] [G,D]>[G,A,D] | %15
 [G,B,G]>[G,B,G] [G,B,G]>[G,EG] [G,DG]2[K:bass] [D,D]>[D,D] | [D,D]>[D,D] [D,D]>[D,D] [D,D]2 B,>D | %17
 D,>D, D,>D, D,2 D>D |[M:3/4] G,,2 G,,2 G,,2 |] %19
V:3
 x8 | x8 | x8 | A,>[K:bass]A, A,>A, z z/ D/[K:treble] E>D | z2 G,2 G,2 B>c |[M:3/4] x6 | %6
[M:1/4] x2 |[M:4/4] x8 | D>D D>D D>D B>A |[M:3/4] [G,B,D]2 [G,CE]2 [G,B,D]2 |[M:1/4] x2 | %11
[M:4/4] D2 z2 D2 z2 | z z/ D/ D>D D2 A>B | D>D D>D z z/ A/ [DBd]>[DAc] | D>D D>D D2 B>c | x8 | x8 | %17
 D>D D>D D>D B>A |[M:3/4] [G,B,D]2 [G,CE]2 [G,B,D]2 |] %19
V:4
 x8 | x8 | x8 | z4[K:bass] A,2[K:treble] z2 | x8 |[M:3/4] x6 |[M:1/4] x2 |[M:4/4] x8 | x8 | %9
[M:3/4] x6 |[M:1/4] x2 |[M:4/4] x8 | x8 | z4 D2 z2 | x8 | x8 | x8 | x8 |[M:3/4] x6 |] %19
V:5
 x8 | x7/2[K:bass] x9/2 | x8 | z4 D,2 z2 | x6[K:treble] x2 |[M:3/4] x6 |[M:1/4][K:bass] x2 | %7
[M:4/4] x8 | x8 |[M:3/4] x6 |[M:1/4][K:treble] x2 |[M:4/4] z4 G,2[K:bass] z2 | x6[K:treble] x2 | %13
 z4 D,2 z2 | x6[K:treble] x2 | x6[K:bass] x2 | x8 | x8 |[M:3/4] x6 |] %19

